<?xml version="1.0" encoding="UTF-8"?>
<map version="1.10" tiledversion="1.11.2" orientation="orthogonal" renderorder="right-down" width="28" height="12" tilewidth="12" tileheight="12" infinite="0" nextlayerid="3" nextobjectid="2">
 <editorsettings>
  <export target="test.lua" format="lua"/>
 </editorsettings>
 <tileset firstgid="1" name="tileset" tilewidth="12" tileheight="12" tilecount="441" columns="21">
  <image source="tileset.png" width="256" height="256"/>
  <tile id="42">
   <properties>
    <property name="collidable" type="bool" value="true"/>
   </properties>
  </tile>
 </tileset>
 <layer id="1" name="layer1" width="28" height="12">
  <data encoding="csv">
1,1,1,1,1,1,1,1,1,1,1,1,1,1,2,23,2,2,2,2,2,2,2,23,2,23,2,23,
1,1,1,1,1,1,1,23,1,1,1,1,2,1,23,1,1,1,1,1,1,1,1,1,1,1,1,2,
1,1,1,2,1,1,1,1,1,1,1,1,1,1,2,1,1,1,1,1,1,1,1,1,1,1,1,2,
1,1,1,1,1,1,1,1,1,1,1,1,1,1,23,1,1,1,43,43,43,43,43,43,1,1,1,23,
1,1,1,1,1,1,1,2,1,1,1,1,1,1,2,1,1,1,43,1,1,1,1,43,1,1,1,23,
1,1,1,1,1,1,1,1,1,1,1,23,1,1,2,1,1,1,43,1,1,1,1,43,1,1,1,23,
1,2,1,1,1,1,1,1,1,1,1,1,1,1,23,1,1,1,43,1,1,1,1,43,1,1,1,23,
1,1,1,1,1,1,1,1,1,1,1,1,1,1,23,1,1,1,43,43,43,43,43,43,1,1,1,23,
1,1,1,1,1,1,1,1,1,1,1,1,1,1,23,1,1,1,1,1,1,1,1,1,1,1,1,2,
1,1,1,1,23,1,1,1,1,1,1,1,1,1,2,1,1,1,1,1,1,1,1,1,1,1,1,2,
1,1,1,1,1,1,1,2,1,1,1,1,2,1,2,1,1,1,1,1,1,1,1,1,1,1,1,23,
1,1,1,1,1,1,1,1,1,1,1,1,1,1,23,2,2,23,23,2,23,23,2,2,2,23,23,23
</data>
 </layer>
 <objectgroup id="2" name="collision">
  <object id="1" x="96" y="48" width="36" height="48">
   <properties>
    <property name="collidable" type="bool" value="true"/>
   </properties>
  </object>
 </objectgroup>
</map>
